MonoIcons/scalable/status/media-playlist-repeat-symbolic.svg

<?xml version="1.0" encoding="UTF-8"?>
<svg height="16px" viewBox="0 0 16 16" width="16px" xmlns="http://www.w3.org/2000/svg">
    <path d="m 8 1 v 2 h -4 c -2.199219 0 -4 1.800781 -4 4 v 2 c 0 1.019531 0.386719 1.964844 1.019531 2.671875 c 0.367188 0.410156 1 0.445313 1.410157 0.078125 c 0.414062 -0.367188 0.449218 -1 0.078124 -1.414062 c -0.316406 -0.351563 -0.507812 -0.8125 -0.507812 -1.335938 v -2 c 0 -1.125 0.875 -2 2 -2 h 4 v 2 h 1 v -0.007812 c 0.265625 0.003906 0.519531 -0.101563 0.707031 -0.285157 l 2 -2 c 0.390625 -0.390625 0.390625 -1.023437 0 -1.414062 l -2 -2 c -0.1875 -0.183594 -0.441406 -0.289063 -0.707031 -0.285157 v -0.007812 z m 6.289062 3 c -0.265624 -0.011719 -0.523437 0.078125 -0.71875 0.257812 c -0.414062 0.367188 -0.449218 1 -0.078124 1.410157 c 0.316406 0.355469 0.507812 0.816406 0.507812 1.339843 v 2 c 0 1.125 -0.875 2 -2 2 h -4 v -2.007812 h -1 v 0.007812 c -0.265625 -0.003906 -0.519531 0.101563 -0.707031 0.285157 l -2 2 c -0.390625 0.390625 -0.390625 1.023437 0 1.414062 l 2 2 c 0.1875 0.183594 0.441406 0.289063 0.707031 0.285157 v 0.007812 h 1 v -1.992188 h 4 c 2.199219 0 4 -1.804687 4 -4 v -2 c 0 -1.023437 -0.386719 -1.96875 -1.019531 -2.675781 c -0.175781 -0.199219 -0.425781 -0.316406 -0.691407 -0.332031 z m 0 0" fill="#2e3436"/>
</svg>

<svg width="16" height="16" viewBox="0 0 16 16" fill="none" xmlns="http://www.w3.org/2000/svg">
<g clip-path="url(#clip0_231_1042)">
<path d="M8 1V3H4C1.80078 3 0 4.80078 0 7V9C0 10.0195 0.386719 10.9648 1.01953 11.6719C1.38672 12.082 2.01953 12.1172 2.42969 11.75C2.84375 11.3828 2.87891 10.75 2.50781 10.3359C2.19141 9.98438 2 9.52344 2 9V7C2 5.875 2.875 5 4 5H8V7H9V6.99219C9.26562 6.99609 9.51953 6.89062 9.70703 6.70703L11.707 4.70703C12.0977 4.31641 12.0977 3.68359 11.707 3.29297L9.70703 1.29297C9.51953 1.10937 9.26562 1.00391 9 1.00781V1H8ZM14.2891 4C14.0234 3.98828 13.7656 4.07813 13.5703 4.25781C13.1562 4.625 13.1211 5.25781 13.4922 5.66797C13.8086 6.02344 14 6.48438 14 7.00781V9.00781C14 10.1328 13.125 11.0078 12 11.0078H8V9H7V9.00781C6.73437 9.00391 6.48047 9.10937 6.29297 9.29297L4.29297 11.293C3.90234 11.6836 3.90234 12.3164 4.29297 12.707L6.29297 14.707C6.48047 14.8906 6.73437 14.9961 7 14.9922V15H8V13.0078H12C14.1992 13.0078 16 11.2031 16 9.00781V7.00781C16 5.98438 15.6133 5.03906 14.9805 4.33203C14.8047 4.13281 14.5547 4.01562 14.2891 4V4Z" fill="#2E3436"/>
</g>
<defs>
<clipPath id="clip0_231_1042">
<rect width="16" height="16" fill="white"/>
</clipPath>
</defs>
</svg>
